img/benefits-1.svg

<svg width="100" height="100" viewBox="0 0 100 100" fill="none" xmlns="http://www.w3.org/2000/svg">
<path d="M2.60927 84.0176L97.3976 84.0176L97.3976 18.3927L2.60927 18.3927L2.60927 84.0176Z" fill="white"/>
<path d="M97.3976 84.6199H2.60238C2.5236 84.6208 2.44536 84.6061 2.37231 84.5765C2.29927 84.547 2.23285 84.5033 2.17682 84.4479C2.12079 84.3925 2.07634 84.3266 2.04598 84.2539C2.01562 84.1812 1.99999 84.1032 2 84.0244V18.3996C2 18.2398 2.06343 18.0866 2.17639 17.9736C2.28936 17.8606 2.44262 17.7972 2.60238 17.7972H97.3976C97.5574 17.7972 97.7106 17.8606 97.8236 17.9736C97.9366 18.0866 98 18.2398 98 18.3996V84.0244C98 84.1032 97.9844 84.1812 97.954 84.2539C97.9237 84.3266 97.8792 84.3925 97.8232 84.4479C97.7672 84.5033 97.7007 84.547 97.6277 84.5765C97.5546 84.6061 97.4764 84.6208 97.3976 84.6199ZM3.23239 83.4151H96.823V19.0227H3.20475L3.23239 83.4151Z" fill="black"/>
<path d="M2.60927 24.2573L97.3976 24.2573V15.5955L2.60927 15.5955V24.2573Z" fill="#F35A05"/>
<path d="M97.3976 24.8596H2.60238C2.44262 24.8596 2.28936 24.7962 2.17639 24.6832C2.06343 24.5703 2 24.417 2 24.2573V15.6024C2 15.4426 2.06343 15.2894 2.17639 15.1764C2.28936 15.0635 2.44262 15 2.60238 15H97.3976C97.5574 15 97.7106 15.0635 97.8236 15.1764C97.9366 15.2894 98 15.4426 98 15.6024V24.2573C98 24.417 97.9366 24.5703 97.8236 24.6832C97.7106 24.7962 97.5574 24.8596 97.3976 24.8596ZM3.23239 23.6549H96.823V16.2048H3.20475L3.23239 23.6549Z" fill="black"/>
<path d="M71.163 20.5322H66.1639C66.0041 20.5322 65.8509 20.4688 65.738 20.3558C65.625 20.2428 65.5615 20.0896 65.5615 19.9298C65.5615 19.7701 65.625 19.6168 65.738 19.5039C65.8509 19.3909 66.0041 19.3275 66.1639 19.3275H71.163C71.3228 19.3275 71.4759 19.3909 71.5889 19.5039C71.7019 19.6168 71.7654 19.7701 71.7654 19.9298C71.7654 20.0896 71.7019 20.2428 71.5889 20.3558C71.4759 20.4688 71.3228 20.5322 71.163 20.5322Z" fill="black"/>
<path d="M81.3064 20.5322H76.3143C76.1546 20.5322 76.0013 20.4688 75.8883 20.3558C75.7754 20.2428 75.7119 20.0896 75.7119 19.9298C75.7119 19.7701 75.7754 19.6168 75.8883 19.5039C76.0013 19.3909 76.1546 19.3275 76.3143 19.3275H81.3134C81.4731 19.3275 81.6264 19.3909 81.7394 19.5039C81.8523 19.6168 81.9157 19.7701 81.9157 19.9298C81.9157 20.0896 81.8523 20.2428 81.7394 20.3558C81.6264 20.4688 81.4731 20.5322 81.3134 20.5322H81.3064Z" fill="black"/>
<path d="M91.4431 20.5322H86.4441C86.2843 20.5322 86.131 20.4688 86.0181 20.3558C85.9051 20.2428 85.8417 20.0896 85.8417 19.9298C85.8417 19.7701 85.9051 19.6168 86.0181 19.5039C86.131 19.3909 86.2843 19.3275 86.4441 19.3275H91.4431C91.6029 19.3275 91.7561 19.3909 91.8691 19.5039C91.982 19.6168 92.0455 19.7701 92.0455 19.9298C92.0455 20.0896 91.982 20.2428 91.8691 20.3558C91.7561 20.4688 91.6029 20.5322 91.4431 20.5322V20.5322Z" fill="black"/>
<path d="M18.4374 70.9591L13.9714 70.8068C13.8228 70.8037 13.6808 70.7451 13.5731 70.6426C13.4655 70.5401 13.4002 70.4011 13.3898 70.2528C13.3206 69.3112 13.2929 68.4942 13.2929 67.7464C13.2971 62.4792 14.4338 57.2746 16.6259 52.4853C18.8181 47.696 22.0144 43.434 25.9982 39.9884C26.0577 39.9365 26.1269 39.8969 26.2018 39.8719C26.2767 39.847 26.3557 39.8371 26.4345 39.843C26.5144 39.8464 26.5928 39.8666 26.6644 39.9024C26.736 39.9382 26.7993 39.9888 26.85 40.0507L29.6195 43.2427C29.9449 43.6166 30.2703 43.9904 30.5888 44.3713L31.1774 45.0636C31.2803 45.1843 31.3314 45.3407 31.3197 45.4988C31.3081 45.657 31.2345 45.8041 31.115 45.9084C27.9788 48.6195 25.4623 51.9733 23.7361 55.7424C22.0098 59.5115 21.1142 63.6077 21.11 67.7533C21.11 68.5357 21.1515 69.3735 21.2277 70.239C21.2343 70.3215 21.2242 70.4045 21.1981 70.483C21.1719 70.5615 21.1301 70.634 21.0754 70.696C21.0185 70.7572 20.95 70.8064 20.8739 70.8409C20.7979 70.8754 20.7157 70.8943 20.6322 70.8968C20.0021 70.8968 19.3236 70.8968 18.4927 70.966L18.4374 70.9591ZM14.5323 69.6228L18.4305 69.7543L19.9467 69.6989C19.8983 69.0066 19.8775 68.3695 19.8775 67.7464C19.8809 63.5293 20.7701 59.36 22.4877 55.5086C24.2053 51.6571 26.7129 48.2095 29.848 45.3891L29.6472 45.1537L28.6847 44.032L26.3168 41.297C22.5944 44.6253 19.6159 48.7013 17.5757 53.2589C15.5355 57.8164 14.4795 62.753 14.4768 67.7464C14.4768 68.3211 14.4907 68.9373 14.5323 69.6228Z" fill="black"/>
<path d="M65.7277 43.3949C65.615 43.3964 65.5044 43.3651 65.4092 43.3049C60.9656 40.4888 55.8355 38.9438 50.5758 38.8376C45.316 38.7314 40.1277 40.0681 35.5741 42.7025C35.4463 42.7769 35.2954 42.8011 35.1508 42.7704C35.0062 42.7396 34.8782 42.6562 34.7917 42.5363C33.3307 40.5492 32.0982 38.7559 31.0181 37.0526C30.9736 36.9863 30.9437 36.9112 30.9306 36.8324C30.9175 36.7535 30.9213 36.6728 30.9419 36.5956C30.9598 36.5167 30.9935 36.4422 31.0412 36.3767C31.0888 36.3112 31.1493 36.2561 31.2189 36.2148C37.2509 32.6013 44.1966 30.8029 51.2244 31.035C58.2521 31.267 65.064 33.5198 70.8444 37.5234C70.9175 37.5734 70.9785 37.6391 71.0229 37.7156C71.0674 37.7921 71.0943 37.8775 71.1016 37.9658C71.1089 38.054 71.0964 38.1427 71.0651 38.2255C71.0338 38.3082 70.9844 38.383 70.9206 38.4443C69.2519 40.0922 67.5902 41.7747 66.1569 43.2149C66.1014 43.2725 66.0347 43.3182 65.9609 43.3492C65.887 43.3801 65.8077 43.3957 65.7277 43.3949ZM50.0035 37.6273C55.5238 37.6227 60.9375 39.1469 65.6446 42.0309C66.8493 40.8123 68.1926 39.4552 69.5635 38.105C64.0851 34.4756 57.704 32.4436 51.1356 32.237C44.5672 32.0303 38.071 33.657 32.3752 36.9349C33.2823 38.3197 34.2931 39.8014 35.4494 41.387C39.9038 38.9207 44.9119 37.627 50.0035 37.6273V37.6273Z" fill="black"/>
<path d="M75.6219 42.3217C73.9186 43.7388 72.2477 45.1928 70.609 46.6838C73.4236 49.4224 75.6611 52.6971 77.1892 56.3147C78.7173 59.9322 79.5051 63.8193 79.5062 67.7463C79.5062 68.5564 79.4646 69.3735 79.3885 70.2182C80.704 70.2182 82.0196 70.2597 83.3352 70.2943C84.2214 70.2943 85.1146 70.3359 86.0078 70.3774C86.077 69.4911 86.1117 68.6187 86.1117 67.7463C86.1174 58.2173 82.3452 49.0745 75.6219 42.3217V42.3217Z" fill="#F35A05"/>
<path d="M86.5755 71.0076H85.994C85.3847 71.0076 84.7753 70.966 84.166 70.9522H83.3352C82.0958 70.9176 80.8079 70.8898 79.3955 70.876H78.7446L78.8069 70.2321C78.8831 69.3804 78.9177 68.5911 78.9177 67.8087C78.9235 63.9612 78.1553 60.1518 76.6589 56.6071C75.1626 53.0625 72.9686 49.855 70.2075 47.1755L69.7505 46.7323L70.2213 46.303C71.8345 44.8421 73.524 43.3673 75.248 41.9271L75.6704 41.5671L76.0582 41.9617C82.8817 48.8072 86.7093 58.081 86.7002 67.7464C86.7002 68.605 86.7002 69.4774 86.5963 70.4259L86.5755 71.0076ZM80.0533 69.6228C81.2234 69.6228 82.3104 69.6643 83.3698 69.692H84.1938H85.4608C85.5024 68.9996 85.5232 68.3072 85.5232 67.6841C85.5333 58.5233 81.983 49.7171 75.622 43.125C74.2372 44.302 72.8524 45.4929 71.5299 46.6839C77.0651 52.287 80.1633 59.8495 80.1502 67.7256C80.1225 68.3626 80.1017 68.9788 80.0533 69.6228V69.6228Z" fill="black"/>
<path d="M48.9787 67.5801C48.7456 67.5847 48.5129 67.5591 48.2863 67.504C47.8839 67.3961 47.5093 67.2031 47.188 66.9379C46.8667 66.6727 46.606 66.3415 46.4238 65.9669C45.2467 63.8412 46.7354 62.0479 47.684 61.404L47.7809 61.3486C47.9263 61.2863 62.5912 54.8609 66.4755 53.1022C66.6013 53.0441 66.7433 53.0317 66.8773 53.067C67.0113 53.1024 67.1287 53.1834 67.2094 53.2961C67.2914 53.4083 67.3321 53.5455 67.3245 53.6843C67.3169 53.8231 67.2616 53.9551 67.1679 54.0577L67.1124 54.1131L67.0432 54.1824L51.0074 66.9293H50.9659C50.3716 67.3158 49.6865 67.5402 48.9787 67.5801V67.5801ZM48.3556 62.4287C48.044 62.6572 46.6385 63.8135 47.5109 65.3852C47.6151 65.611 47.7657 65.8122 47.9531 65.9756C48.1404 66.1391 48.3601 66.2612 48.5979 66.3338C49.2024 66.4214 49.8183 66.2914 50.3358 65.9669L62.7435 56.1003C57.1974 58.5583 49.1172 62.0895 48.3556 62.4287Z" fill="black"/>
<path d="M48.9302 36.9695C48.8989 36.9696 48.8682 36.962 48.8404 36.9476C48.8127 36.9331 48.7888 36.9121 48.7709 36.8864C47.9055 35.7371 47.0539 34.56 46.2299 33.4245C46.2001 33.3812 46.1885 33.3279 46.1976 33.2761C46.2066 33.2243 46.2356 33.1782 46.2784 33.1475C46.3228 33.1174 46.3771 33.1056 46.4301 33.1146C46.483 33.1236 46.5304 33.1528 46.5623 33.196C47.3793 34.3523 48.2309 35.5224 49.0895 36.658C49.1055 36.6787 49.1171 36.7024 49.1237 36.7277C49.1303 36.753 49.1317 36.7794 49.1278 36.8053C49.1239 36.8312 49.1149 36.856 49.1012 36.8783C49.0874 36.9006 49.0693 36.9198 49.0479 36.9349C49.0137 36.9594 48.9722 36.9716 48.9302 36.9695Z" fill="black"/>
<path d="M51.9837 37.0734C51.9514 37.0734 51.9196 37.0659 51.8908 37.0515C51.8619 37.0371 51.8369 37.0161 51.8175 36.9903L49.1518 33.106C49.1215 33.0619 49.11 33.0076 49.1197 32.9551C49.1294 32.9025 49.1596 32.8559 49.2037 32.8256C49.2478 32.7953 49.3021 32.7837 49.3547 32.7935C49.4073 32.8032 49.4539 32.8335 49.4842 32.8775L52.1498 36.7618C52.1789 36.806 52.1895 36.8598 52.1791 36.9117C52.1687 36.9635 52.1383 37.0092 52.0945 37.0388C52.0629 37.0633 52.0236 37.0756 51.9837 37.0734V37.0734Z" fill="black"/>
<path d="M55.5426 37.5858C55.5113 37.5858 55.4805 37.5783 55.4528 37.5638C55.425 37.5493 55.4012 37.5284 55.3834 37.5027C54.3102 36.0764 53.2023 34.65 52.0737 33.2653C52.0397 33.2239 52.0236 33.1708 52.0288 33.1176C52.0339 33.0644 52.0601 33.0154 52.1014 32.9814C52.1428 32.9474 52.1959 32.9312 52.2491 32.9364C52.3023 32.9416 52.3513 32.9678 52.3853 33.0091C53.5139 34.3939 54.6286 35.834 55.7018 37.2604C55.718 37.2816 55.7298 37.3059 55.7365 37.3318C55.7432 37.3576 55.7446 37.3846 55.7407 37.411C55.7369 37.4375 55.7277 37.4629 55.7139 37.4858C55.7001 37.5086 55.6819 37.5285 55.6603 37.5442C55.627 37.5712 55.5854 37.5858 55.5426 37.5858Z" fill="black"/>
<path d="M59.8493 38.7144C59.8187 38.7141 59.7887 38.7072 59.7612 38.694C59.7337 38.6809 59.7093 38.6618 59.69 38.6382L55.9511 33.7914C55.929 33.7719 55.9116 33.7477 55.8999 33.7206C55.8882 33.6935 55.8826 33.6642 55.8836 33.6347C55.8845 33.6052 55.8919 33.5763 55.9053 33.55C55.9187 33.5237 55.9376 33.5007 55.9609 33.4826C55.9842 33.4645 56.0112 33.4517 56.04 33.4452C56.0688 33.4387 56.0986 33.4387 56.1274 33.445C56.1562 33.4514 56.1833 33.464 56.2067 33.482C56.2301 33.5 56.2492 33.5229 56.2627 33.5491L60.0085 38.3959C60.0431 38.4351 60.0622 38.4855 60.0622 38.5378C60.0622 38.5901 60.0431 38.6405 60.0085 38.6797C59.9617 38.7111 59.9048 38.7235 59.8493 38.7144Z" fill="black"/>
<path d="M63.9067 40.2239C63.8762 40.2232 63.8463 40.2161 63.8188 40.2029C63.7914 40.1898 63.767 40.171 63.7474 40.1477L59.6969 34.8163C59.6785 34.7983 59.6639 34.7767 59.6539 34.7529C59.6439 34.7292 59.6388 34.7036 59.6388 34.6778C59.6388 34.652 59.6439 34.6265 59.6539 34.6027C59.6639 34.5789 59.6785 34.5574 59.6969 34.5394C59.7346 34.5017 59.7856 34.4806 59.8389 34.4806C59.8921 34.4806 59.9432 34.5017 59.9808 34.5394L64.0521 39.8708C64.0736 39.9005 64.0866 39.9356 64.0896 39.9722C64.0925 40.0087 64.0854 40.0455 64.069 40.0783C64.0526 40.1111 64.0275 40.1388 63.9964 40.1584C63.9654 40.178 63.9296 40.1886 63.8929 40.1893L63.9067 40.2239Z" fill="black"/>
<path d="M66.7109 39.9053C66.6786 39.9053 66.6468 39.8978 66.618 39.8834C66.5891 39.869 66.5641 39.848 66.5447 39.8222L64.1975 36.5541C64.1673 36.5097 64.1555 36.4554 64.1645 36.4024C64.1736 36.3495 64.2027 36.3021 64.2459 36.2703C64.2892 36.2405 64.3425 36.2289 64.3943 36.2379C64.4461 36.247 64.4923 36.276 64.5229 36.3187L66.8701 39.5868C66.8863 39.6081 66.8981 39.6323 66.9048 39.6582C66.9114 39.6841 66.9129 39.711 66.909 39.7375C66.9051 39.7639 66.896 39.7893 66.8822 39.8122C66.8684 39.8351 66.8502 39.8549 66.8286 39.8707C66.7946 39.8956 66.7529 39.9079 66.7109 39.9053V39.9053Z" fill="black"/>
<path d="M45.6413 37.3712C45.6108 37.371 45.5808 37.364 45.5533 37.3509C45.5257 37.3377 45.5014 37.3186 45.4821 37.295C44.6166 36.2357 43.7858 35.1209 43.0103 33.9854C42.9805 33.9421 42.9689 33.8888 42.9779 33.837C42.987 33.7852 43.016 33.7391 43.0587 33.7084C43.0808 33.6929 43.1058 33.6821 43.1323 33.6764C43.1587 33.6708 43.186 33.6706 43.2125 33.6758C43.239 33.6809 43.2641 33.6914 43.2865 33.7065C43.3089 33.7217 43.328 33.7412 43.3426 33.7638C44.1112 34.8855 44.9351 35.9864 45.7937 37.0458C45.8293 37.0831 45.8491 37.1327 45.8491 37.1843C45.8491 37.2358 45.8293 37.2854 45.7937 37.3227C45.7735 37.3416 45.7493 37.3557 45.723 37.3641C45.6966 37.3724 45.6687 37.3749 45.6413 37.3712V37.3712Z" fill="black"/>
<path d="M42.5187 37.8628C42.4893 37.8621 42.4604 37.8548 42.4341 37.8417C42.4078 37.8285 42.3847 37.8097 42.3664 37.7867L39.8115 34.7678C39.7766 34.7274 39.7592 34.6748 39.7631 34.6216C39.767 34.5683 39.7919 34.5188 39.8323 34.4839C39.8727 34.4491 39.9253 34.4316 39.9786 34.4355C40.0318 34.4394 40.0813 34.4643 40.1162 34.5047L42.6711 37.5305C42.7088 37.5681 42.7299 37.6192 42.7299 37.6724C42.7299 37.7256 42.7088 37.7767 42.6711 37.8143C42.6276 37.8478 42.5736 37.8649 42.5187 37.8628V37.8628Z" fill="black"/>
<path d="M39.5276 38.9706C39.5019 38.9713 39.4764 38.9668 39.4526 38.9573C39.4288 38.9477 39.4072 38.9334 39.3891 38.9152C38.3713 37.9666 37.3673 36.9557 36.4187 35.931C36.382 35.8915 36.3624 35.839 36.3644 35.7851C36.3663 35.7313 36.3897 35.6804 36.4291 35.6436C36.4686 35.6069 36.521 35.5874 36.5749 35.5893C36.6288 35.5913 36.6798 35.6145 36.7165 35.654C37.6582 36.6787 38.6482 37.6758 39.666 38.6244C39.7036 38.662 39.7248 38.7131 39.7248 38.7663C39.7248 38.8195 39.7036 38.8706 39.666 38.9083C39.6486 38.9278 39.6272 38.9434 39.6034 38.9541C39.5795 38.9648 39.5537 38.9704 39.5276 38.9706Z" fill="black"/>
<path d="M36.7996 39.9953C36.7568 39.9953 36.7152 39.9807 36.6819 39.9538C35.8095 39.3029 34.944 38.6174 34.1062 37.9181C34.0686 37.8805 34.0474 37.8294 34.0474 37.7762C34.0474 37.7229 34.0686 37.6719 34.1062 37.6342C34.1447 37.5982 34.1954 37.5782 34.2481 37.5782C34.3008 37.5782 34.3515 37.5982 34.39 37.6342C35.214 38.3266 36.0726 39.019 36.945 39.6629C36.986 39.6968 37.0125 39.7452 37.0189 39.798C37.0254 39.8508 37.0112 39.9041 36.9795 39.9468C36.956 39.9694 36.9273 39.9856 36.8958 39.9941C36.8643 40.0026 36.8313 40.003 36.7996 39.9953V39.9953Z" fill="black"/>
<g opacity="0.13">
<path d="M97.3907 24.915H2.60242V27.7262H97.3907V24.915Z" fill="black"/>
</g>
</svg>

<svg xmlns="http://www.w3.org/2000/svg" width="100" height="100" fill="none"><path fill="#fff" d="M2.61 84.018h94.788V18.393H2.609v65.625Z"/><path fill="#000" d="M97.398 84.62H2.602A.595.595 0 0 1 2 84.024V18.4a.602.602 0 0 1 .602-.603h94.796A.602.602 0 0 1 98 18.4v65.624a.595.595 0 0 1-.602.596ZM3.232 83.415h93.591V19.023H3.205l.027 64.392Z"/><path fill="#F35A05" d="M2.61 24.257h94.788v-8.662H2.609v8.662Z"/><path fill="#000" d="M97.398 24.86H2.602A.602.602 0 0 1 2 24.257v-8.655A.602.602 0 0 1 2.602 15h94.796a.603.603 0 0 1 .602.602v8.655a.602.602 0 0 1-.602.603ZM3.232 23.655h93.591v-7.45H3.205l.027 7.45Z"/><path fill="#000" d="M71.163 20.532h-5a.602.602 0 1 1 0-1.204h5a.602.602 0 1 1 0 1.204ZM81.306 20.532h-4.992a.602.602 0 1 1 0-1.204h5a.602.602 0 1 1 0 1.204h-.008ZM91.443 20.532h-4.999a.602.602 0 1 1 0-1.204h5a.602.602 0 1 1 0 1.204ZM18.437 70.96l-4.466-.153a.596.596 0 0 1-.581-.554 33.905 33.905 0 0 1-.097-2.507 36.74 36.74 0 0 1 12.705-27.758.598.598 0 0 1 .436-.145.568.568 0 0 1 .416.208l2.77 3.192c.325.374.65.747.969 1.128l.588.693a.602.602 0 0 1-.062.844A28.913 28.913 0 0 0 21.11 67.753c0 .783.041 1.62.118 2.486a.617.617 0 0 1-.153.457.63.63 0 0 1-.443.2c-.63 0-1.308 0-2.14.07l-.055-.007Zm-3.905-1.337 3.898.131 1.517-.055c-.049-.692-.07-1.33-.07-1.953a30.106 30.106 0 0 1 9.971-22.357l-.2-.235-.963-1.122-2.368-2.735a35.507 35.507 0 0 0-11.84 26.45c0 .574.014 1.19.055 1.876ZM65.728 43.395a.581.581 0 0 1-.319-.09 28.796 28.796 0 0 0-29.835-.602.596.596 0 0 1-.782-.167 96.383 96.383 0 0 1-3.774-5.483.56.56 0 0 1-.076-.457.596.596 0 0 1 .277-.381 36.58 36.58 0 0 1 39.625 1.308.594.594 0 0 1 .077.921c-1.67 1.648-3.33 3.33-4.764 4.77a.589.589 0 0 1-.43.18Zm-15.724-5.768a29.891 29.891 0 0 1 15.64 4.404 415.702 415.702 0 0 1 3.92-3.926 35.38 35.38 0 0 0-37.189-1.17 107.085 107.085 0 0 0 3.074 4.452 30.043 30.043 0 0 1 14.555-3.76Z"/><path fill="#F35A05" d="M75.622 42.322a149.976 149.976 0 0 0-5.013 4.362 29.399 29.399 0 0 1 8.897 21.062c0 .81-.041 1.628-.118 2.472 1.316 0 2.632.042 3.947.076.886 0 1.78.042 2.673.083.069-.886.104-1.758.104-2.63a36.004 36.004 0 0 0-10.49-25.425Z"/><path fill="#000" d="M86.576 71.008h-.582c-.61 0-1.219-.042-1.828-.056h-.83c-1.24-.034-2.528-.062-3.94-.076h-.651l.062-.644c.076-.852.11-1.64.11-2.423a28.69 28.69 0 0 0-8.71-20.633l-.456-.444.47-.429a167.557 167.557 0 0 1 5.027-4.376l.422-.36.388.395A36.475 36.475 0 0 1 86.7 67.746c0 .859 0 1.731-.104 2.68l-.02.582Zm-6.523-1.385c1.17 0 2.257.041 3.317.069H85.46c.041-.692.062-1.385.062-2.008a35.312 35.312 0 0 0-9.901-24.559 190.562 190.562 0 0 0-4.092 3.559 29.87 29.87 0 0 1 8.62 21.042c-.028.637-.048 1.253-.097 1.897ZM48.979 67.58a2.704 2.704 0 0 1-.693-.076 2.909 2.909 0 0 1-1.862-1.537c-1.177-2.126.311-3.92 1.26-4.563l.097-.055c.145-.063 14.81-6.488 18.694-8.247a.596.596 0 0 1 .734.194.602.602 0 0 1-.041.762l-.056.055-.069.07-16.036 12.746h-.041c-.594.387-1.28.611-1.987.651Zm-.623-5.151c-.312.228-1.718 1.384-.845 2.956a1.763 1.763 0 0 0 1.087.949 2.576 2.576 0 0 0 1.738-.367L62.743 56.1c-5.546 2.458-13.626 5.99-14.387 6.329ZM48.93 36.97a.194.194 0 0 1-.16-.084c-.864-1.149-1.716-2.326-2.54-3.462a.2.2 0 0 1 .048-.276.208.208 0 0 1 .284.048 133.707 133.707 0 0 0 2.528 3.462.194.194 0 0 1-.16.311ZM51.984 37.073a.208.208 0 0 1-.166-.083l-2.666-3.884a.202.202 0 0 1 .332-.229l2.666 3.885a.2.2 0 0 1-.056.277.166.166 0 0 1-.11.034ZM55.543 37.586a.194.194 0 0 1-.16-.083 139.134 139.134 0 0 0-3.31-4.238.202.202 0 0 1 .312-.256 139.917 139.917 0 0 1 3.317 4.251.2.2 0 0 1-.042.284.187.187 0 0 1-.117.042ZM59.85 38.714a.208.208 0 0 1-.16-.076l-3.739-4.847a.2.2 0 0 1 .01-.308.201.201 0 0 1 .302.066l3.745 4.847a.214.214 0 0 1 0 .284.221.221 0 0 1-.159.034ZM63.907 40.224a.214.214 0 0 1-.16-.076l-4.05-5.332a.194.194 0 0 1 0-.277.2.2 0 0 1 .284 0l4.071 5.332a.201.201 0 0 1-.16.318l.015.035ZM66.71 39.905a.208.208 0 0 1-.165-.083l-2.347-3.268a.208.208 0 0 1 .048-.284.201.201 0 0 1 .277.049l2.347 3.268a.201.201 0 0 1-.041.284.18.18 0 0 1-.118.034ZM45.641 37.371a.208.208 0 0 1-.159-.076 48.344 48.344 0 0 1-2.472-3.31.201.201 0 0 1 .049-.277.202.202 0 0 1 .284.056 51.152 51.152 0 0 0 2.45 3.282.2.2 0 0 1 0 .277.187.187 0 0 1-.152.048ZM42.519 37.863a.2.2 0 0 1-.153-.076l-2.554-3.02a.201.201 0 1 1 .304-.262l2.555 3.026a.2.2 0 0 1 0 .283.235.235 0 0 1-.152.049ZM39.528 38.97a.188.188 0 0 1-.139-.055 57.544 57.544 0 0 1-2.97-2.984.203.203 0 0 1 .298-.277 54.293 54.293 0 0 0 2.949 2.97.2.2 0 0 1 0 .284.186.186 0 0 1-.138.063ZM36.8 39.995a.187.187 0 0 1-.118-.041 60.468 60.468 0 0 1-2.576-2.036.2.2 0 0 1 0-.284.208.208 0 0 1 .284 0 52.126 52.126 0 0 0 2.555 2.029.208.208 0 0 1 .035.284.193.193 0 0 1-.18.048Z"/><path fill="#000" d="M97.39 24.915H2.603v2.811h94.789v-2.811Z" opacity=".13"/></svg>
